src/assets/svgs/Parallax-Sea2.svg

<svg xmlns="http://www.w3.org/2000/svg" width="1920" height="1080" fill="none" xmlns:v="https://vecta.io/nano"><mask id="A" maskUnits="userSpaceOnUse" x="-66" y="0" width="2052" height="1084"><path d="M1985.11 0H-66V1083.52H1985.11V0Z" fill="#fff"/></mask><g mask="url(#A)"><path d="M2036.39 824.042H-69.237v294.848H2036.39V824.042z" fill="url(#B)"/><path opacity=".15" fill-rule="evenodd" d="M1990.76 824.043v24.788c-18.73 2.706-72.62 9.876-113.54 9.343-50.32-.629-66.02 1.73-61.31 27.429s-272.69 13.904-272.69 13.904 25.84 5.347 24.27 16.074c-1.46 9.939-59.42 1.384-67.45.157 5.82 1.07 36.81 7.173 36.81 15.885 0 9.657-203.6 7.517-235.06-8.021-31.45-15.54 24.37-30.512 21.23-31.582s-307.38 8.557-315.23-6.322c-7.852-14.847 95.11-15.099 95.11-15.099s-26.71 12.834-14.94 15.099c11.8 2.264 192.8-7.864 191.04-27.524-1.78-19.628-501.533-.439-505.481 11.355-3.763 11.293 41.635 11.512 45.354 11.512-6.535.095-136.541 1.918-136.541 14.438 0 12.867 97.286 15.289 95.392 17.678-1.918 2.421-230.988-6.417-235.123 0-4.11 6.417 30.064 1.603 31.267 4.813 1.176 3.208-278.303 8.839-281.236 1.604-2.956-7.203-124.998-8.021-138.552-6.417-11.57 1.352-2.979 7.991-.208 9.941-4.594-2.988-28.103-18.433-28.103-22.776 0-4.843 231.127 17.648 238.194-4.843 7.089-22.459-77.243-16.859-78.42-21.673s178.063-.786 156.749-21.297c-16.28-15.665-351.02 11.67-507.63 25.417v-53.883H1990.76z" fill="#4685e4"/><path opacity=".15" fill-rule="evenodd" d="M1990.76 824.043v16.811h-578.82c19.38-1.71 33.37-3.817 36.86-6.38 14.94-10.913-676.063 5.792-676.063 5.792l-551.065-7.821c-2.472 2.777 1.986 5.792 8.313 8.406H-65.34V824.04h2056.1v.003z" fill="#4685e4"/></g><defs><linearGradient id="B" x1="983.576" y1="1118.89" x2="983.576" y2="824.043" gradientUnits="userSpaceOnUse"><stop stop-color="#fccec7"/><stop offset=".673" stop-color="#ffe6e1"/><stop offset="1" stop-color="#bdc8de"/></linearGradient></defs></svg>

<svg width="1920" height="1080" viewBox="0 0 1920 1080" fill="none" xmlns="http://www.w3.org/2000/svg">
<mask id="mask0_17_1495" style="mask-type:luminance" maskUnits="userSpaceOnUse" x="-66" y="0" width="2052" height="1084">
<path d="M1985.11 0H-66V1083.52H1985.11V0Z" fill="white"/>
</mask>
<g mask="url(#mask0_17_1495)">
<path d="M2036.39 824.042H-69.2371V1118.89H2036.39V824.042Z" fill="url(#paint0_linear_17_1495)"/>
<path opacity="0.15" fill-rule="evenodd" clip-rule="evenodd" d="M1990.76 824.043V848.831C1972.03 851.537 1918.14 858.707 1877.22 858.174C1826.9 857.545 1811.2 859.904 1815.91 885.603C1820.62 911.301 1543.22 899.507 1543.22 899.507C1543.22 899.507 1569.06 904.854 1567.49 915.581C1566.03 925.52 1508.07 916.965 1500.04 915.738C1505.86 916.808 1536.85 922.911 1536.85 931.623C1536.85 941.28 1333.25 939.14 1301.79 923.602C1270.34 908.062 1326.16 893.09 1323.02 892.02C1319.88 890.95 1015.64 900.577 1007.79 885.698C999.938 870.851 1102.9 870.599 1102.9 870.599C1102.9 870.599 1076.19 883.433 1087.96 885.698C1099.76 887.962 1280.76 877.834 1279 858.174C1277.22 838.546 777.467 857.735 773.519 869.529C769.756 880.822 815.154 881.041 818.873 881.041C812.338 881.136 682.332 882.959 682.332 895.479C682.332 908.346 779.618 910.768 777.724 913.157C775.806 915.578 546.736 906.74 542.601 913.157C538.491 919.574 572.665 914.76 573.868 917.97C575.044 921.178 295.565 926.809 292.632 919.574C289.676 912.371 167.634 911.553 154.08 913.157C142.51 914.509 151.101 921.148 153.872 923.098C149.278 920.11 125.769 904.665 125.769 900.322C125.769 895.479 356.896 917.97 363.963 895.479C371.052 873.02 286.72 878.62 285.543 873.806C284.366 868.992 463.606 873.02 442.292 852.509C426.012 836.844 91.2723 864.179 -65.3377 877.926V824.043H1990.76Z" fill="#4685E4"/>
<path opacity="0.15" fill-rule="evenodd" clip-rule="evenodd" d="M1990.76 824.043V840.854H1411.94C1431.32 839.144 1445.31 837.037 1448.8 834.474C1463.74 823.561 772.737 840.266 772.737 840.266C772.737 840.266 227.976 825.375 221.672 832.445C219.2 835.222 223.658 838.237 229.985 840.851H-65.34V824.04H1990.76V824.043Z" fill="#4685E4"/>
</g>
<defs>
<linearGradient id="paint0_linear_17_1495" x1="983.576" y1="1118.89" x2="983.576" y2="824.043" gradientUnits="userSpaceOnUse">
<stop stop-color="#FCCEC7"/>
<stop offset="0.6732" stop-color="#FFE6E1"/>
<stop offset="1" stop-color="#BDC8DE"/>
</linearGradient>
</defs>
</svg>
